X:1
T:Any One Here?
T:Any One Here?
T:William Howard Doane
T:Frances Jane (Fanny) Crosby, 1877
T:Public Domain Courtesy of the Cyber Hymnal™
T:Public Domain Courtesy of the Cyber Hymnal™
C:William Howard Doane
Z:Public Domain
Z:Courtesy of the Cyber Hymnal™
%%score ( 1 2 ) ( 3 4 )
L:1/8
Q:1/4=100
M:4/4
K:G
V:1 treble 
V:2 treble 
V:3 bass 
V:4 bass 
V:1
 [DB][CA] | [B,G][B,G] [CE]2 [B,D]2 [DG][DA] | [DB]2 [Dd]2 ([GB][DA]) [DG]2 | %3
w: 1.~Is there|a- ny sad heart that is|hea- vy la- * den?|
w: 2.~Is there|a- ny who thirsts for the|liv- ing wa- * ter?|
w: 3.~Is there|a- ny would ask for a|word of com- * fort?|
w: 4.~Is there|a- ny who longs to be|owned by Je- * sus?|
 [FA][FA] [FA]2 [FA]4 | [GB][GB] [GB]2 !fermata![Gd]2 [Gd][Gc] | [GB][GB] [Gd]2 [GB]2 [FA][EG] | %6
w: A- ny one here?|A- ny one here? Is there|a- ny poor soul who would|
w: A- ny one here?|A- ny one here? Is there|a- ny who sighs for the|
w: A- ny one here?|A- ny one here? Is there|a- ny who feels that our|
w: A- ny one here?|A- ny one here? Is there|a- ny will say, “I be-|
 [EA]3 [EG] [CE]2 [EG]2 | D[DG][DG][EA] [DB]3 [Dc] | [DB]2 [DA]2 [DG]4 || %9
w: love the Sav- ior?|Come, and we will help you|on your way.|
w: crim- son foun- tain?|Come, and we will help you|on your way.|
w: prayers would cheer you?|Come, and we will help you|on your way.|
w: lieve this mo- ment”?|Come, and we will help you|on your way.|
"^Refrain" [Gd][Gd] [Gd]2 [Gd]3 [Gc] | [GB]2 [FA]2 (G[FA]) [GB]2 | [Ac]2 [GB]2 [EA]2 [EG]2 | %12
w: |||
w: |||
w: |||
w: |||
 !fermata![Fd]6 [Ad][Ac] | [GB][GB] [Gd]2 [GB]2 [FA][EG] | [EA]3 [EG] [CE]2 [EG]2 | %15
w: |||
w: |||
w: |||
w: |||
 D[DG][DG][EA] [DB]3 [Dc] | [DB]2 [DA]2 [DG]4 |] %17
w: ||
w: ||
w: ||
w: ||
V:2
 x2 | x8 | x8 | x8 | x8 | x8 | x8 | D x7 | x8 || x8 | x4 G x3 | x8 | x8 | x8 | x8 | D x7 | x8 |] %17
V:3
 [G,,G,][G,,G,] | [G,,G,][G,,G,] [G,,G,]2 [G,,G,]2 [B,,G,][D,F,] | G,2 [G,B,]2 (DC) [G,B,]2 | %3
w: ~ ~|~ ~ ~ ~ ~ ~|~ ~ ~ * ~|
 [D,D][D,D] [D,D]2 [D,D]4 | [G,D][G,D] [G,D]2 !fermata![G,B,]2 [G,B,][G,E] | %5
w: ~ ~ ~ ~|~ ~ ~ ~ ~ ~|
 [G,D][G,D] [G,B,]2 [G,D]2 [D,C][E,B,] | [C,C]3 [C,C] [C,G,]2 [C,G,]2 | %7
w: ~ ~ ~ ~ ~ ~|~ ~ ~ ~|
 [B,,G,][G,,B,][B,,G,][C,G,] [D,G,]3 [D,A,] | [D,G,]2 [D,C]2 [G,B,]4 || %9
w: ~ ~ ~ ~ ~ ~|~ ~ ~|
 [G,B,][G,B,] [G,B,]2 [G,B,]3 [G,E] | [G,D]2 [D,D]2 D2 [G,D]2 | [F,D]2 [G,D]2 [C,A,]2 [^C,A,]2 | %12
w: Just as you are the|Lord will save you,|Come with- out de-|
 !fermata![D,A,]6 [F,D][F,D] | [G,D][G,D] [G,B,]2 [G,D]2 [D,C][E,B,] | %14
w: lay; Is there|a- ny poor soul who would|
 [C,C]3 [C,C] [C,G,]2 [C,G,]2 | [B,,G,][G,,B,][B,,G,][C,G,] [D,G,]3 [D,A,] | %16
w: fol- low Je- sus?|Come, and we will help you|
 [D,G,]2 [D,C]2 [G,,G,B,]4 |] %17
w: on your way.|
V:4
 x2 | x8 | G,2 G,2 x4 | x8 | x8 | x8 | x8 | x8 | x8 || x8 | x4 (B,,D,) x2 | x8 | x8 | x8 | x8 | %15
 x8 | x8 |] %17

